X: 2099
T: The Drunken Piper
B: nick
B: to learn
M:4/4
L:1/8
R: Reel
Q: 1/4=225
K:ADor
V:1 
|: e2 |AAAB c2cd |cBEB c2c2|DDDG B2Bc |BGDG B2e2 |
AAAB c2cd |cBEB c2c2|B2G2 GBGG |G2A2 A2 :| 
   e2 |c2cB A2c2 |cBcd e2c2|DDDG B2Bc |BGDG B2e2 |
c2cB A2c2  |cBcd e2c2|B2G2 GBGG |G2A2 A2 || 
   e2 |c2cB A2c2 |cBcd e2c2  |DDDG B2Bc |BGDG B2e2 |
AAAB c2cd |cBEB c2c2|B2G2 GBGG |G2A2 A2 |]
% abcbook-tune_id 634560cc7ae33e40e13784a0


% abcbook-boost 0
% abcbook-tablature 
% abcbook-transpose 
% abcbook-lastupdated 1666005641113
% abcbook-soundfonts 
% abcbook-repeats 3
% Rhythm Reel
% Titles One title
% Transcriptions Only 1 transcription
% Mode major
% Key G
% Time_signature 4/4
% Has_accompaniment_chords No chords

